src/card_system/american_express.svg

<svg viewBox="0 0 256 256" fill="none" xmlns="http://www.w3.org/2000/svg">
<g clip-path="url(#clip0)">
<path d="M0 0H256V256H0V0Z" fill="#016FD0"/>
<path fill-rule="evenodd" clip-rule="evenodd" d="M115.062 138.223V219.572H200.942L210.344 207.267L219.602 219.572H271.47V200.738H283.131C293.247 200.738 297.927 197.682 297.927 197.682V219.572H332.184V206.749L342.638 219.572H516.335C517.562 219.562 518.767 219.46 519.935 219.291C527.223 218.457 533.543 215.538 538.221 210.557C543.698 204.725 545.935 197.166 545.935 189.841C545.935 182.951 543.892 175.688 538.339 170.126C537.826 169.613 537.295 169.125 536.747 168.663L551.163 138.246L220.336 138.223L210.757 150.27L201.485 138.223H115.062Z" fill="white"/>
<path d="M113.85 38.4219H147.432L158.453 64.3107V38.4219H200.199L206.76 57.1335L213.12 38.4219H400.518V47.8289C400.518 47.8289 410.369 38.4219 426.559 38.4219L487.363 38.6388L498.193 64.1888V38.4219H533.129L542.744 53.0983V38.4219H578V121.449H542.744L533.529 106.725V121.449H482.201L477.039 108.361H463.241L458.163 121.449H423.354C409.423 121.449 400.518 112.234 400.518 112.234V121.449H348.034L337.618 108.361V121.449H142.457L137.299 108.361H123.544L118.423 121.449H94.4309H79L113.85 38.4219Z" fill="white"/>
<path d="M120.338 48.1602L94.125 109.987H111.191L116.028 97.6063H144.146L148.958 109.987H166.4L140.212 48.1602H120.338ZM130.037 62.5491L138.608 84.1834H121.441L130.037 62.5491Z" fill="#016FD0"/>
<path d="M168.213 109.987V48.1602L192.465 48.2515L206.571 88.1135L220.339 48.1602H244.397V109.987H229.16V64.4303L213.009 109.987H199.646L183.45 64.4303V109.987H168.213Z" fill="#016FD0"/>
<path d="M125.779 209.784V147.957H175.5V161.787H141.177V172.362H174.698V185.378H141.177V196.361H175.5V209.784H125.779Z" fill="#016FD0"/>
<path d="M177.438 209.784L201.646 179.252L176.861 147.957H196.058L210.819 167.303L225.629 147.957H244.074L219.615 178.87L243.868 209.784H224.675L210.342 190.742L196.359 209.784H177.438Z" fill="#016FD0"/>
</g>
<defs>
<clipPath id="clip0">
<path d="M0 0H256V256H0V0Z" fill="white"/>
</clipPath>
</defs>
</svg>

<svg xmlns="http://www.w3.org/2000/svg" xmlns:xlink="http://www.w3.org/1999/xlink" viewBox="0 0 256 256"><defs><style>.cls-1{fill:none;}.cls-2{clip-path:url(#clip-path);}.cls-3{fill:#016fd0;}.cls-4,.cls-5{fill:#fff;}.cls-4{fill-rule:evenodd;}</style><clipPath id="clip-path"><rect class="cls-1" width="256" height="256"/></clipPath></defs><g class="cls-2"><path class="cls-3" d="M0,0H256V256H0Z"/><path class="cls-4" d="M115.06,138.22v81.35h85.88l9.4-12.3,9.26,12.3h51.87V200.74h11.66c10.12,0,14.8-3.06,14.8-3.06v21.89h34.25V206.75l10.46,12.82h173.7a26.63,26.63,0,0,0,3.6-.28,29,29,0,0,0,18.28-8.73c5.48-5.83,7.71-13.39,7.71-20.72,0-6.89-2-14.15-7.59-19.71q-.76-.78-1.59-1.47l14.41-30.41-330.82,0-9.58,12.05-9.28-12.05Z"/><path class="cls-5" d="M113.85,38.42h33.58l11,25.89V38.42H200.2l6.56,18.71,6.36-18.71h187.4v9.41a40,40,0,0,1,26-9.41l60.8.22,10.83,25.55V38.42h34.94l9.61,14.68V38.42H578v83H542.74l-9.21-14.73v14.73H482.2L477,108.36h-13.8l-5.08,13.09H423.35a34.07,34.07,0,0,1-22.83-9.22v9.22H348l-10.41-13.09v13.09H142.46l-5.16-13.09H123.54l-5.12,13.09H79Z"/><path class="cls-3" d="M120.34,48.16,94.12,110h17.07L116,97.61h28.12L149,110H166.4L140.21,48.16ZM130,62.55l8.57,21.63H121.44L130,62.55Z"/><path class="cls-3" d="M168.21,110V48.16l24.26.09,14.1,39.86,13.77-39.95H244.4V110H229.16V64.43L213,110H199.65l-16.2-45.56V110Z"/><path class="cls-3" d="M125.78,209.78V148H175.5v13.83H141.18v10.57H174.7v13H141.18v11H175.5v13.42Z"/><path class="cls-3" d="M177.44,209.78l24.21-30.53L176.86,148h19.2l14.76,19.34L225.63,148h18.44l-24.46,30.91,24.26,30.91h-19.2l-14.33-19-14,19Z"/></g></svg>
